src/img/seller-1.svg

<svg width="205" height="52" viewBox="0 0 205 52" fill="none" xmlns="http://www.w3.org/2000/svg">
<path d="M7.80484 34.1696C8.04484 34.7296 8.30484 35.2896 8.60484 35.8196C8.81484 35.8196 9.01484 35.7896 9.22484 35.7896C12.1848 35.7896 14.9948 36.9396 17.0748 39.0296L17.1648 39.1196C17.3748 38.5596 17.6048 37.9996 17.8748 37.4396C15.5048 35.2896 12.4248 34.0896 9.22484 34.1196C8.75484 34.1196 8.27484 34.1496 7.80484 34.1796V34.1696ZM6.59484 30.3496C6.71484 30.9096 6.86484 31.4696 7.00484 31.9996C7.74484 31.8796 8.48484 31.8496 9.19484 31.8496C12.7748 31.8496 16.2448 33.1096 18.9648 35.4096C19.2648 34.9096 19.5848 34.4696 19.9448 33.9996C16.9248 31.4996 13.1348 30.1496 9.22484 30.1496C8.36484 30.1796 7.47484 30.2396 6.58484 30.3596L6.59484 30.3496ZM9.85484 37.8196C10.3548 38.5296 10.9248 39.1996 11.5148 39.8496C13.2948 40.4396 14.7748 41.6396 15.6648 43.2596C15.7848 43.3496 15.9348 43.4096 16.0448 43.4996C16.1648 42.7896 16.2848 42.0896 16.4848 41.3796C14.9148 39.3196 12.4848 38.0296 9.85484 37.8196ZM9.23484 26.3496C8.22484 26.3496 7.19484 26.4396 6.21484 26.5896C6.21484 27.1496 6.24484 27.7396 6.30484 28.2996C7.28484 28.1496 8.25484 28.0596 9.23484 28.0596C13.6448 28.0596 17.9348 29.5896 21.3148 32.4096C21.6948 31.9996 22.1148 31.5896 22.5248 31.1996C18.8248 28.0796 14.1148 26.3496 9.23484 26.3496Z" fill="white"/>
<path d="M28.9145 46.171C29.5045 46.111 30.0645 45.991 30.6345 45.881C30.8445 42.671 33.6245 40.231 36.8545 40.411C37.8645 40.471 38.8345 40.791 39.6645 41.321C40.1045 40.941 40.5245 40.531 40.9045 40.111C37.5245 37.671 32.7945 38.431 30.3345 41.791C29.4445 43.081 28.9445 44.611 28.9145 46.171ZM24.2645 46.231C24.8245 46.291 25.3945 46.321 25.9845 46.321V46.231C25.9845 40.471 30.6945 35.791 36.4945 35.791C38.7745 35.791 40.9945 36.531 42.8045 37.881C43.1345 37.411 43.4545 36.941 43.7245 36.441C38.2745 32.471 30.6345 33.621 26.6445 39.031C25.1045 41.121 24.2745 43.651 24.2745 46.241L24.2645 46.231ZM36.4945 25.791C26.1645 25.791 17.4245 33.381 16.0645 43.551C16.5945 43.841 17.1345 44.141 17.6945 44.401C18.7345 34.081 27.9945 26.551 38.3945 27.581C41.1445 27.841 43.7845 28.731 46.1545 30.111C46.2745 29.521 46.3645 28.931 46.4245 28.321C43.3745 26.641 39.9745 25.791 36.5045 25.791H36.4945ZM19.9145 45.291C20.4745 45.471 21.0445 45.641 21.6045 45.791C21.8745 37.611 28.7445 31.201 36.9745 31.441C39.8445 31.531 42.6345 32.441 44.9945 34.061C45.2345 33.531 45.4045 32.971 45.5845 32.411C37.8845 27.441 27.6145 29.591 22.5745 37.201C21.0045 39.641 20.0845 42.411 19.9145 45.291Z" fill="white"/>
<path d="M26.3653 0.820312C12.1853 0.820312 0.695312 12.2303 0.695312 26.3203C0.695312 40.4103 12.1853 51.8203 26.3653 51.8203C40.5453 51.8203 52.0353 40.4103 52.0353 26.3203C52.0353 12.2303 40.5453 0.820312 26.3653 0.820312ZM42.1753 42.0303C38.4153 45.7703 33.4753 48.0303 28.1753 48.4403L26.3653 51.5303L24.5553 48.4403C13.6253 47.5903 4.95531 38.9703 4.09531 28.1203L0.985312 26.3303L4.09531 24.5403C4.95531 13.6703 13.6353 5.06031 24.5553 4.17031L26.3653 1.11031L28.1753 4.20031C39.1053 5.05031 47.7753 13.6703 48.6353 24.5203L51.7453 26.3103L48.6353 28.1003C48.2253 33.3403 45.9453 38.2803 42.1853 42.0103L42.1753 42.0303Z" fill="white"/>
<path d="M70.9545 11.8809H75.0745L86.6245 38.5009H81.1745L78.6845 32.4109H67.0745L64.6445 38.5009H59.3145L70.9545 11.8809ZM76.9945 28.3509L72.8745 17.5309L68.6745 28.3509H76.9945Z" fill="white"/>
<path d="M113.415 36.5302C110.095 38.2902 106.425 39.1502 102.345 39.1502C100.395 39.1802 98.4653 38.8302 96.6553 38.1502C93.2753 36.8902 90.5853 34.2702 89.2553 30.9402C88.5453 29.1502 88.1553 27.2002 88.1853 25.2602C88.1553 23.2602 88.5153 21.2902 89.2553 19.4402C89.9053 17.7602 90.9153 16.2602 92.1853 15.0002C93.4553 13.7602 94.9653 12.7902 96.6553 12.1502C98.4653 11.4702 100.415 11.1202 102.345 11.1502C104.295 11.1502 106.225 11.3902 108.085 11.8902C109.865 12.3902 111.515 13.2702 112.885 14.5102L109.365 18.0402C108.475 17.1902 107.415 16.5402 106.255 16.1302C105.015 15.6902 103.705 15.4502 102.375 15.4502C101.075 15.4202 99.7953 15.6902 98.6153 16.1902C97.5153 16.6602 96.5453 17.3702 95.7153 18.2202C94.8853 19.1002 94.2653 20.1302 93.8453 21.2502C93.4053 22.4302 93.1653 23.6902 93.1953 24.9902C93.1953 26.3402 93.4053 27.6702 93.8453 28.9302C94.2553 30.0802 94.8853 31.1402 95.7153 32.0502C96.5153 32.9302 97.5253 33.6402 98.6153 34.1102C99.7953 34.6402 101.075 34.8702 102.375 34.8702C103.525 34.8702 104.685 34.7502 105.805 34.5202C106.815 34.3102 107.755 33.9602 108.645 33.4602V27.2202H103.135V22.9602H113.375L113.405 36.5502L113.415 36.5302Z" fill="white"/>
<path d="M118.916 11.8809H123.686V38.5009H118.916V11.8809Z" fill="white"/>
<path d="M147.935 18.1102C146.955 17.0502 146.015 16.3502 145.095 15.9902C144.205 15.6402 143.255 15.4602 142.315 15.4602C141.015 15.4302 139.735 15.7002 138.555 16.2002C137.455 16.6702 136.485 17.3802 135.655 18.2302C134.825 19.1102 134.205 20.1402 133.795 21.2602C133.355 22.4402 133.115 23.7002 133.145 25.0002C133.145 26.3502 133.355 27.6802 133.795 28.9402C134.205 30.0902 134.835 31.1502 135.655 32.0602C136.455 32.9402 137.465 33.6502 138.555 34.1202C139.735 34.6502 141.015 34.8802 142.315 34.8802C143.415 34.8802 144.505 34.6202 145.485 34.1202C146.605 33.5302 147.585 32.6802 148.325 31.6502L152.265 34.4102C151.145 36.0002 149.605 37.2302 147.825 38.0302C146.075 38.7902 144.185 39.1802 142.255 39.1502C140.305 39.1802 138.375 38.8302 136.565 38.1502C133.185 36.8902 130.495 34.3002 129.165 30.9402C128.425 29.1502 128.065 27.2002 128.095 25.2602C128.065 23.2602 128.455 21.2902 129.165 19.4402C129.815 17.7602 130.825 16.2602 132.095 15.0002C133.365 13.7602 134.875 12.7902 136.565 12.1502C138.375 11.4702 140.325 11.1202 142.255 11.1502C143.975 11.1202 145.685 11.4702 147.315 12.1202C149.005 12.8602 150.485 13.9702 151.635 15.3802L147.935 18.1202V18.1102Z" fill="white"/>
<path d="M166.416 11.8809H170.536L182.086 38.5009H176.636L174.146 32.4109H162.506L160.076 38.5009H154.746L166.416 11.8809ZM172.486 28.3509L168.376 17.5309L164.146 28.3509H172.496H172.486Z" fill="white"/>
<path d="M185.836 11.8809H194.836C196.076 11.8809 197.326 12.0009 198.566 12.2609C199.686 12.5009 200.756 12.9109 201.736 13.5209C202.656 14.1109 203.396 14.9309 203.896 15.8709C204.456 17.0209 204.756 18.2809 204.696 19.5809C204.696 21.2609 204.396 22.6109 203.836 23.6409C203.276 24.6409 202.476 25.4609 201.496 26.0209C200.426 26.6109 199.276 26.9909 198.066 27.1709C196.736 27.3809 195.376 27.4609 194.006 27.4609H190.606V38.4609H185.836V11.8809ZM193.476 23.4109C194.156 23.4109 194.866 23.3809 195.606 23.3209C196.286 23.2609 196.996 23.1109 197.616 22.8509C198.206 22.6109 198.736 22.2309 199.126 21.7309C199.536 21.1109 199.746 20.3809 199.716 19.6109C199.746 18.9009 199.566 18.2309 199.186 17.6409C198.836 17.1709 198.356 16.7609 197.826 16.5209C197.236 16.2609 196.616 16.0809 195.966 16.0209C195.316 15.9309 194.666 15.9009 194.006 15.9009H190.606V23.4009H193.476V23.4109Z" fill="white"/>
</svg>

<svg xmlns="http://www.w3.org/2000/svg" width="205" height="52" fill="#fff" xmlns:v="https://vecta.io/nano"><path d="M7.805 34.17l.8 1.65.62-.03c2.96 0 5.77 1.15 7.85 3.24l.09.09.71-1.68c-2.37-2.15-5.45-3.35-8.65-3.32l-1.42.06v-.01zm-1.21-3.82l.41 1.65c.74-.12 1.48-.15 2.19-.15 3.58 0 7.05 1.26 9.77 3.56.3-.5.62-.94.98-1.41-3.02-2.5-6.81-3.85-10.72-3.85-.86.03-1.75.09-2.64.21l.01-.01zm3.26 7.47c.5.71 1.07 1.38 1.66 2.03 1.78.59 3.26 1.79 4.15 3.41.12.09.27.15.38.24.12-.71.24-1.41.44-2.12-1.57-2.06-4-3.35-6.63-3.56zm-.62-11.47c-1.01 0-2.04.09-3.02.24 0 .56.03 1.15.09 1.71.98-.15 1.95-.24 2.93-.24 4.41 0 8.7 1.53 12.08 4.35.38-.41.8-.82 1.21-1.21-3.7-3.12-8.41-4.85-13.29-4.85z"/><path d="M28.915 46.171c.59-.06 1.15-.18 1.72-.29.21-3.21 2.99-5.65 6.22-5.47a5.88 5.88 0 0 1 2.81.91 14.2 14.2 0 0 0 1.24-1.21c-3.38-2.44-8.11-1.68-10.57 1.68a8.01 8.01 0 0 0-1.42 4.38zm-4.65.06a16.09 16.09 0 0 0 1.72.09v-.09c0-5.76 4.71-10.44 10.51-10.44 2.28 0 4.5.74 6.31 2.09.33-.47.65-.94.92-1.44-5.45-3.97-13.09-2.82-17.08 2.59a12.16 12.16 0 0 0-2.37 7.21l-.01-.01zm12.23-20.44c-10.33 0-19.07 7.59-20.43 17.76.53.29 1.07.59 1.63.85 1.04-10.32 10.3-17.85 20.7-16.82 2.75.26 5.39 1.15 7.76 2.53a17.54 17.54 0 0 0 .27-1.79c-3.05-1.68-6.45-2.53-9.92-2.53h-.01zm-16.58 19.5c.56.18 1.13.35 1.69.5.27-8.18 7.14-14.59 15.37-14.35 2.87.09 5.66 1 8.02 2.62.24-.53.41-1.09.59-1.65-7.7-4.97-17.97-2.82-23.01 4.79-1.57 2.44-2.49 5.21-2.66 8.09zM26.365.82C12.185.82.695 12.23.695 26.32s11.49 25.5 25.67 25.5 25.67-11.41 25.67-25.5S40.545.82 26.365.82zm15.81 41.21c-3.76 3.74-8.7 6-14 6.41l-1.81 3.09-1.81-3.09c-10.93-.85-19.6-9.47-20.46-20.32l-3.11-1.79 3.11-1.79c.86-10.87 9.54-19.48 20.46-20.37l1.81-3.06 1.81 3.09c10.93.85 19.6 9.47 20.46 20.32l3.11 1.79-3.11 1.79c-.41 5.24-2.69 10.18-6.45 13.91l-.01.02zm28.78-30.149h4.12l11.55 26.62h-5.45l-2.49-6.09h-11.61l-2.43 6.09h-5.33l11.64-26.62zm6.04 16.47l-4.12-10.82-4.2 10.82h8.32zm36.42 8.179c-3.32 1.76-6.99 2.62-11.07 2.62a15.51 15.51 0 0 1-5.69-1 12.76 12.76 0 0 1-7.4-7.21c-.71-1.79-1.1-3.74-1.07-5.68-.03-2 .33-3.97 1.07-5.82.65-1.68 1.66-3.18 2.93-4.44a12.94 12.94 0 0 1 4.47-2.85c1.81-.68 3.76-1.03 5.69-1a22.1 22.1 0 0 1 5.74.74c1.78.5 3.43 1.38 4.8 2.62l-3.52 3.53a8.7 8.7 0 0 0-3.11-1.91c-1.24-.44-2.55-.68-3.88-.68-1.3-.03-2.58.24-3.76.74-1.1.47-2.07 1.18-2.9 2.03-.83.88-1.45 1.91-1.87 3.03-.44 1.18-.68 2.44-.65 3.74 0 1.35.21 2.68.65 3.94a9.21 9.21 0 0 0 1.87 3.12c.8.88 1.81 1.59 2.9 2.06 1.18.53 2.46.76 3.76.76 1.15 0 2.31-.12 3.43-.35 1.01-.21 1.95-.56 2.84-1.06v-6.24h-5.51v-4.26h10.24l.03 13.59.01-.02zm5.501-24.649h4.77v26.62h-4.77v-26.62zm29.019 6.229c-.98-1.06-1.92-1.76-2.84-2.12-.89-.35-1.84-.53-2.78-.53-1.3-.03-2.58.24-3.76.74-1.1.47-2.07 1.18-2.9 2.03-.83.88-1.45 1.91-1.86 3.03-.44 1.18-.68 2.44-.65 3.74 0 1.35.21 2.68.65 3.94.41 1.15 1.04 2.21 1.86 3.12.8.88 1.81 1.59 2.9 2.06 1.18.53 2.46.76 3.76.76 1.1 0 2.19-.26 3.17-.76a8.23 8.23 0 0 0 2.84-2.47l3.94 2.76c-1.12 1.59-2.66 2.82-4.44 3.62-1.75.76-3.64 1.15-5.57 1.12-1.95.03-3.88-.32-5.69-1-3.38-1.26-6.07-3.85-7.4-7.21-.74-1.79-1.1-3.74-1.07-5.68-.03-2 .36-3.97 1.07-5.82.65-1.68 1.66-3.18 2.93-4.44a12.94 12.94 0 0 1 4.47-2.85c1.81-.68 3.76-1.03 5.69-1 1.72-.03 3.43.32 5.06.97 1.69.74 3.17 1.85 4.32 3.26l-3.7 2.74v-.01zm18.481-6.229h4.12l11.55 26.62h-5.45l-2.49-6.09h-11.64l-2.43 6.09h-5.33l11.67-26.62zm6.07 16.47l-4.11-10.82-4.23 10.82h8.35-.01zm13.35-16.47h9c1.24 0 2.49.12 3.73.38a9.88 9.88 0 0 1 3.17 1.26 6.32 6.32 0 0 1 2.16 2.35c.56 1.15.86 2.41.8 3.71 0 1.68-.3 3.03-.86 4.06-.56 1-1.36 1.82-2.34 2.38a10.15 10.15 0 0 1-3.43 1.15c-1.33.21-2.69.29-4.06.29h-3.4v11h-4.77v-26.58zm7.64 11.53l2.13-.09c.68-.06 1.39-.21 2.01-.47.59-.24 1.12-.62 1.51-1.12.41-.62.62-1.35.59-2.12.03-.71-.15-1.38-.53-1.97-.35-.47-.83-.88-1.36-1.12-.59-.26-1.21-.44-1.86-.5-.65-.09-1.3-.12-1.96-.12h-3.4v7.5h2.87v.01z"/></svg>
